!!!ONB: MCCC : IFC0051_02 : Extracted Monophonic Melody
!!!COM: Chopin, Frédéric
!!!OPR: Mazurkas
!!!OMV: 2
!!!SCT: Op.30
!!!ODT: 1835///
**kern
*thru
*staff1
*Ipiano
*>A
*clefG2
*k[]
*a:
*M3/4
*MM160
4ee
=1
8.ff
16ee
4dd
4ff
=2
2ff
4ee
=3
24dd
24ee
24dd
8cc#
8dd
8dd#
8ee
8b
=4
2dd
4cc
=5
12a
12b
12a
4g#
4a
=6
4b
2ee
=7
8b
8g
8e
8b
4d#
=8
2e
4ee
=9
8.ff
16ee
4dd
4ff
=10
2ff
4ee
=11
24dd
24ee
24dd
8cc#
8dd
8dd#
8ee
8b
=12
2dd
4cc
=13
12a
12b-
12a
4g
4a
=14
4b-
4dd
4r
=15
8.a
16g#
4e
4g#
=16
2a
*>B
4b
=17
8cc
8dd
4ee-
8.ee-
16ff
=18
2ee-
4dd
=19
8cc
8dd
4ee-
8.ee-
16ff
=20
2ee-
4dd
=21
2bb-
4cc#
=22
2aa
4cc
=23
2aa-
4b
=24
4.gg
8b-
8a
8ee
=25
8ff
8ee
4dd
4ff
=26
2ff
4ee
=27
24dd
24ee
24dd
8cc#
8dd
8dd#
8ee
8b
=28
2dd
4cc
=29
12a
12b-
12a
4g
4a
=30
4b-
4dd
4r
=31
8.a
16g#
4e
4g#
=32
*>B1
2a
*>B
4b
=33
8cc
8dd
4ee-
8.ee-
16ff
=34
2ee-
4dd
=35
8cc
8dd
4ee-
8.ee-
16ff
=36
2ee-
4dd
=37
2bb-
4cc#
=38
2aa
4cc
=39
2aa-
4b
=40
4.gg
8b-
8a
8ee
=41
8ff
8ee
4dd
4ff
=42
2ff
4ee
=43
24dd
24ee
24dd
8cc#
8dd
8dd#
8ee
8b
=44
2dd
4cc
=45
12a
12b-
12a
4g
4a
=46
4b-
4dd
4r
=47
8.a
16g#
4e
4g#
=48
*>B2
2.a
=49
*>C
*k[f#c#g#]
8cc#
16r
16cc#
4dd
4b
=50
8.g#
16e
4.a
8b
=51
8.cc#
16ee
4dd
4b
=52
12g#
12f#
12e
4.a
8b
=53
12cc#
12cc#
12cc#
4dd
4b
=54
12g#
12f#
12e
4.a
8b
=55
12cc#
12dd
12ee
4dd
4b
=56
12g#
12f#
12e
2a
=57
*>D
8cc#
16r
16cc#
4dd
4b
=58
12cc#
12b
12a
4dd
4b
=59
8cc#
16r
16cc#
4dd
4b
=60
12cc#
12b
12a
4fff#
4fff#
=61
8cc#
16r
16cc#
4dd
4b
=62
12cc#
12b
12a
4dd
4b
=63
8cc#
8dd#
2ee
=64
8cc#
8dd#
4.ee
8dd
=65
8cc#
16r
16cc#
4dd
4b
=66
8.g#
16e
4.a
8b
=67
8.cc#
16ee
4dd
4b
=68
12g#
12f#
12e
4.a
8b
=69
12cc#
12cc#
12cc#
4dd
4b
=70
12g#
12f#
12e
4.a
8b
=71
12cc#
12dd
12ee
4dd
4b
=72
*>D1
12g#
12f#
12e
2a
=73
*>D
8cc#
16r
16cc#
4dd
4b
=74
12cc#
12b
12a
4dd
4b
=75
8cc#
16r
16cc#
4dd
4b
=76
12cc#
12b
12a
4fff#
4fff#
=77
8cc#
16r
16cc#
4dd
4b
=78
12cc#
12b
12a
4dd
4b
=79
8cc#
8dd#
2ee
=80
8cc#
8dd#
4.ee
8dd
=81
8cc#
16r
16cc#
4dd
4b
=82
8.g#
16e
4.a
8b
=83
8.cc#
16ee
4dd
4b
=84
12g#
12f#
12e
4.a
8b
=85
12cc#
12cc#
12cc#
4dd
4b
=86
12g#
12f#
12e
4.a
8b
=87
12cc#
12dd
12ee
4dd
4b
=88
*>D2
12g#
12f#
12e
4a
*>A
*k[]
*M3/4
4ee
=89
8.ff
16ee
4dd
4ff
=90
2ff
4ee
=91
24dd
24ee
24dd
8cc#
8dd
8dd#
8ee
8b
=92
2dd
4cc
=93
12a
12b
12a
4g#
4a
=94
4b
2ee
=95
8b
8g
8e
8b
4d#
=96
2e
4ee
=97
8.ff
16ee
4dd
4ff
=98
2ff
4ee
=99
24dd
24ee
24dd
8cc#
8dd
8dd#
8ee
8b
=100
2dd
4cc
=101
12a
12b-
12a
4g
4a
=102
4b-
4dd
4r
=103
8.a
16g#
4e
4g#
=104
2a
*>B
4b
=105
8cc
8dd
4ee-
8.ee-
16ff
=106
2ee-
4dd
=107
8cc
8dd
4ee-
8.ee-
16ff
=108
2ee-
4dd
=109
2bb-
4cc#
=110
2aa
4cc
=111
2aa-
4b
=112
4.gg
8b-
8a
8ee
=113
8ff
8ee
4dd
4ff
=114
2ff
4ee
=115
24dd
24ee
24dd
8cc#
8dd
8dd#
8ee
8b
=116
2dd
4cc
=117
12a
12b-
12a
4g
4a
=118
4b-
4dd
4r
=119
8.a
16g#
4e
4g#
=120
*>B2
2.a
==
*-
